Newaita-dark/.DP/32/cryptfolder-open-light.svg

<svg xmlns="http://www.w3.org/2000/svg" xmlns:xlink="http://www.w3.org/1999/xlink" width="32px" height="32px" viewBox="0 0 32 32" version="1.1">
<g id="surface1">
<path style=" stroke:none;fill-rule:nonzero;fill:rgb(93.333334%,93.333334%,93.333334%);fill-opacity:1;" d="M 15.878906 4.21875 C 11.480469 4.21875 7.9375 7.167969 7.9375 10.832031 L 10.582031 10.832031 C 10.582031 8.636719 12.945312 6.863281 15.878906 6.863281 C 18.808594 6.863281 21.167969 8.636719 21.167969 10.832031 L 21.167969 16.128906 L 6.613281 16.128906 C 5.882812 16.128906 5.292969 16.714844 5.292969 17.449219 L 5.292969 26.710938 C 5.292969 27.441406 5.882812 28.035156 6.613281 28.035156 L 25.136719 28.035156 C 25.871094 28.035156 26.460938 27.441406 26.460938 26.710938 L 26.460938 17.449219 C 26.460938 16.714844 25.871094 16.128906 25.136719 16.128906 L 23.816406 16.128906 L 23.816406 10.832031 C 23.816406 7.167969 20.273438 4.21875 15.878906 4.21875 Z M 15.878906 4.21875 "/>
</g>
</svg>

<svg xmlns="http://www.w3.org/2000/svg" width="32pt" height="32pt" viewBox="0 0 32 32"><path d="M15.875 4.219c-4.395 0-7.938 2.949-7.938 6.617h2.649c0-2.2 2.36-3.973 5.289-3.973 2.934 0 5.293 1.774 5.293 3.973v5.289H6.613c-.73 0-1.32.59-1.32 1.324v9.262c0 .734.59 1.324 1.32 1.324h18.524a1.32 1.32 0 0 0 1.324-1.324v-9.262a1.32 1.32 0 0 0-1.324-1.324h-1.32v-5.29c0-3.667-3.544-6.616-7.942-6.616zm0 0" fill="#bdbdbd"/></svg>
